X:54
T:Untitled Jig WHG053
R:jig
S:W.H.Giles MS,Bampton,Oxfordshire,1839p55
O:England
H:donated by Mrs W.R.Kettlewell to VWML,Apr 1927.
A:Bampton, Oxfordshire
N:1st note bars 1 & 5 is g2 in MS.
N:Tune marked “D Capo” at end.
Z:PJHeadford – VMP 2009
M:6/8
L:1/8
Q:3/8=120
K:G
d”$”|” F”g3 gdB|e2zd2z|” P”cBc Adc|BcA GB” F”d|
g3 gdB|e2zd2z|cBc Adc|BGG G2:|
” f”G|FGA DEF|GAB c3|ABc dcA|G3 F2D|
EFG ABc|d2B e2d|^cde ABc|e3 def”:$:”|]

